logos/alat.svg

<svg width="570" height="570" fill="none" xmlns="http://www.w3.org/2000/svg"><path fill="#C7001D" d="M0 0h570v570H0z"/><path d="M303.376 432.432c0 .783.092 1.517.275 2.2.2.667.483 1.25.85 1.75.367.483.825.867 1.375 1.15.55.283 1.175.425 1.875.425a4.6 4.6 0 0 0 1.75-.325c.533-.233 1-.567 1.4-1 .4-.433.708-.958.925-1.575.233-.633.35-1.358.35-2.175a8.33 8.33 0 0 0-.2-2.275c-.167-.717-.433-1.342-.8-1.875a3.83 3.83 0 0 0-1.425-1.25c-.567-.317-1.233-.475-2-.475a3.8 3.8 0 0 0-1.85.45 4.204 4.204 0 0 0-1.375 1.175 5.37 5.37 0 0 0-.85 1.725c-.2.65-.3 1.342-.3 2.075zm0 6.525h-1.5v-18h1.5v7.125c.483-.8 1.142-1.4 1.975-1.8a5.945 5.945 0 0 1 2.65-.625c.983 0 1.833.192 2.55.575a4.954 4.954 0 0 1 1.8 1.5 6.19 6.19 0 0 1 1.075 2.175c.233.833.35 1.7.35 2.6 0 .95-.108 1.842-.325 2.675-.217.833-.567 1.558-1.05 2.175a4.931 4.931 0 0 1-1.8 1.425c-.733.35-1.625.525-2.675.525-.417 0-.842-.058-1.275-.175a6.337 6.337 0 0 1-1.275-.5 5.77 5.77 0 0 1-1.125-.8 4.405 4.405 0 0 1-.825-1.15h-.05v2.275zm13.508 3.525l.6.1c.217.033.433.05.65.05.417 0 .758-.133 1.025-.4.267-.267.483-.592.65-.975a6.65 6.65 0 0 0 .45-1.175c.117-.4.25-.742.4-1.025l-5.025-13.05h1.675l4.15 11.125 4.15-11.125h1.625l-4.825 12.775c-.3.817-.592 1.55-.875 2.2-.267.65-.558 1.2-.875 1.65-.3.467-.642.817-1.025 1.05-.367.25-.808.375-1.325.375-.267 0-.525-.017-.775-.05a6.367 6.367 0 0 1-.65-.125v-1.4zm33.908-5.925h.05l3.925-15.6h1.75l-4.725 18h-1.875l-4.175-15.9h-.05l-4.175 15.9h-1.875l-4.65-18h1.7l3.875 15.6h.05l4.175-15.6h1.9l4.1 15.6zm8.092 2.4v-18h11.975v1.45h-10.275v6.5h9.275v1.45h-9.275v7.15h10.525v1.45h-12.225zm15.208 0v-18h2.6l5.9 15.875h.05l5.8-15.875h2.575v18h-1.7v-16.05h-.05l-5.9 16.05h-1.6l-5.925-16.05h-.05v16.05h-1.7zm19.25 0l7.075-18h1.925l6.9 18h-1.75l-2.075-5.65h-8.2l-2.125 5.65h-1.75zm4.45-7.1h7.05l-3.525-9.45-3.525 9.45zM193.056 393.308h-17.012l-2.603 5.649H161v-1.619L181.884 353h5.459l20.661 44.338v1.619h-12.282l-2.666-5.649zm-8.506-20.948l-4.697 10.982h9.426l-4.729-10.982zM249.271 353.444v34.849h16.473v10.664h-28.343v-45.513h11.87zM329.022 393.308h-17.011l-2.603 5.649h-12.441v-1.619L317.851 353h5.459l20.661 44.338v1.619h-12.283l-2.666-5.649zm-8.505-20.948l-4.698 10.982h9.427l-4.729-10.982zM384.914 363.854h-11.172v-10.41h33.801v10.41h-11.108v35.103h-11.521v-35.103zM139 322h151.028c2.973 0 4.907-3.129 3.578-5.789L290.5 310l-6.5-11.5-.335-.558a4 4 0 0 0-3.43-1.942h-95.737c-3.094 0-5.017-3.363-3.446-6.03l62.525-106.159c1.542-2.617 5.324-2.629 6.881-.021l81.378 136.261A4 4 0 0 0 335.27 322h92.801c3.079 0 5.004-3.334 3.464-6l-110.88-192a4 4 0 0 0-3.464-2h-19.882c-3.052 0-4.98 3.281-3.493 5.948l90.368 162.104c1.487 2.667-.441 5.948-3.493 5.948h-29.893a3.997 3.997 0 0 1-3.455-1.986l-96.186-165.028a3.997 3.997 0 0 0-3.455-1.986h-.402a4 4 0 0 0-3.457 1.988l-108.3 186.079a3.995 3.995 0 0 0-.543 2.012V318a4 4 0 0 0 4 4z" fill="#fff"/></svg>

<svg width="570" height="570" viewBox="0 0 570 570" fill="none" xmlns="http://www.w3.org/2000/svg">
<g clip-path="url(#clip0_646_4351)">
<path d="M0 0H570V570H0V0Z" fill="white"/>
<path d="M303.376 432.432C303.376 433.215 303.468 433.949 303.651 434.632C303.851 435.299 304.134 435.882 304.501 436.382C304.868 436.865 305.326 437.249 305.876 437.532C306.426 437.815 307.051 437.957 307.751 437.957C308.35 437.964 308.944 437.853 309.501 437.632C310.034 437.399 310.501 437.065 310.901 436.632C311.301 436.199 311.609 435.674 311.826 435.057C312.059 434.424 312.176 433.699 312.176 432.882C312.214 432.118 312.147 431.353 311.976 430.607C311.809 429.89 311.543 429.265 311.176 428.732C310.813 428.203 310.323 427.773 309.751 427.482C309.184 427.165 308.518 427.007 307.751 427.007C307.106 426.998 306.469 427.152 305.901 427.457C305.363 427.744 304.894 428.145 304.526 428.632C304.141 429.151 303.853 429.736 303.676 430.357C303.476 431.007 303.376 431.699 303.376 432.432ZM303.376 438.957H301.876V420.957H303.376V428.082C303.859 427.282 304.518 426.682 305.351 426.282C306.174 425.871 307.081 425.658 308.001 425.657C308.984 425.657 309.834 425.849 310.551 426.232C311.262 426.581 311.88 427.095 312.351 427.732C312.849 428.379 313.215 429.118 313.426 429.907C313.659 430.74 313.776 431.607 313.776 432.507C313.776 433.457 313.668 434.349 313.451 435.182C313.234 436.015 312.884 436.74 312.401 437.357C311.921 437.967 311.305 438.455 310.601 438.782C309.868 439.132 308.976 439.307 307.926 439.307C307.509 439.307 307.084 439.249 306.651 439.132C306.209 439.012 305.782 438.844 305.376 438.632C304.97 438.411 304.593 438.143 304.251 437.832C303.916 437.496 303.637 437.107 303.426 436.682H303.376V438.957ZM316.884 442.482L317.484 442.582C317.701 442.615 317.917 442.632 318.134 442.632C318.551 442.632 318.892 442.499 319.159 442.232C319.426 441.965 319.642 441.64 319.809 441.257C319.996 440.88 320.146 440.487 320.259 440.082C320.376 439.682 320.509 439.34 320.659 439.057L315.634 426.007H317.309L321.459 437.132L325.609 426.007H327.234L322.409 438.782C322.109 439.599 321.817 440.332 321.534 440.982C321.267 441.632 320.976 442.182 320.659 442.632C320.359 443.099 320.017 443.449 319.634 443.682C319.267 443.932 318.826 444.057 318.309 444.057C318.042 444.057 317.784 444.04 317.534 444.007C317.315 443.977 317.098 443.935 316.884 443.882V442.482ZM350.792 436.557H350.842L354.767 420.957H356.517L351.792 438.957H349.917L345.742 423.057H345.692L341.517 438.957H339.642L334.992 420.957H336.692L340.567 436.557H340.617L344.792 420.957H346.692L350.792 436.557ZM358.884 438.957V420.957H370.859V422.407H360.584V428.907H369.859V430.357H360.584V437.507H371.109V438.957H358.884ZM374.092 438.957V420.957H376.692L382.592 436.832H382.642L388.442 420.957H391.017V438.957H389.317V422.907H389.267L383.367 438.957H381.767L375.842 422.907H375.792V438.957H374.092ZM393.342 438.957L400.417 420.957H402.342L409.242 438.957H407.492L405.417 433.307H397.217L395.092 438.957H393.342ZM397.792 431.857H404.842L401.317 422.407L397.792 431.857ZM193.056 393.308H176.044L173.441 398.957H161V397.338L181.884 353H187.343L208.004 397.338V398.957H195.722L193.056 393.308ZM184.55 372.36L179.853 383.342H189.279L184.55 372.36ZM249.271 353.444V388.293H265.744V398.957H237.401V353.444H249.271ZM329.022 393.308H312.011L309.408 398.957H296.967V397.338L317.851 353H323.31L343.971 397.338V398.957H331.688L329.022 393.308ZM320.517 372.36L315.819 383.342H325.246L320.517 372.36ZM384.914 363.854H373.742V353.444H407.543V363.854H396.435V398.957H384.914V363.854ZM139 322H290.028C293.001 322 294.935 318.871 293.606 316.211L290.5 310L284 298.5L283.665 297.942C283.31 297.35 282.807 296.86 282.206 296.519C281.605 296.179 280.926 296 280.235 296H184.498C181.404 296 179.481 292.637 181.052 289.97L243.577 183.811C245.119 181.194 248.901 181.182 250.458 183.79L331.836 320.051C332.191 320.645 332.694 321.137 333.296 321.479C333.898 321.82 334.578 322 335.27 322H428.071C431.15 322 433.075 318.666 431.535 316L320.655 124C320.304 123.392 319.799 122.887 319.191 122.536C318.583 122.185 317.893 122 317.191 122H297.309C294.257 122 292.329 125.281 293.816 127.948L384.184 290.052C385.671 292.719 383.743 296 380.691 296H350.798C350.099 296 349.412 295.817 348.805 295.468C348.199 295.12 347.695 294.618 347.343 294.014L251.157 128.986C250.805 128.382 250.301 127.88 249.695 127.532C249.088 127.183 248.401 127 247.702 127H247.3C246.6 127 245.913 127.184 245.306 127.532C244.699 127.881 244.195 128.383 243.843 128.988L135.543 315.067C135.187 315.678 135 316.372 135 317.079V318C135 319.061 135.421 320.078 136.172 320.828C136.922 321.579 137.939 322 139 322Z" fill="#C7001D"/>
</g>
<defs>
<clipPath id="clip0_646_4351">
<rect width="570" height="570" fill="white"/>
</clipPath>
</defs>
</svg>
